X:1
T:Title
%%score [ ( 1 2 ) 3 4 5 ]
L:1/8
Q:1/4=120
M:3/2
K:Ab
V:1 treble nm="S."
V:2 treble 
V:3 treble nm="A."
V:4 treble-8 nm="T."
V:5 bass nm="B."
V:1
"^Full"!mf! A4 A6 A2 | A2 A2 B2 B2"^Magnificat""^of the Short Service" c4 | e4 d2 c3 c B2 | %3
w: My soul doth|mag- ni- fy the Lord,|and my spi- rit re-|
 d4 c4 c2"^_""^Orlando Gibbons""^(1583 - 1625)" B2- |"^___" BA (A4 G2) A4 | z2!mp! c4 e2 dc (c2- | %6
w: joic- eth in God|* my Sa * viour.|For he hath re- gard|
 c2 B2) c2 A2 | d3 c B2 AG | F4 G2 G2 | z2!mf! c4 B2 | A2 B2 G4 | F2 A2 B2 d2 | c2 B2"^____" e4- | %13
w: * * ed the|low- li- ness of his|hand- mai- den.|For be-|hold, from hence-|forth all ge- ne-|ra- ti- ons|
"^____" e2 A2 A2 A2 | B4 c4 | z2!f! e2 e2 dc | B3 c d2 c3 Bcd | e3 e c2 e2 A2 d2 | c4 z4 | %19
w: * shall call me|bless- ed.|For he that is|migh- ty hath mag- ni- fi- ed|me; and ho- ly is his|Name.|
 z2!mp! B"^Can."B d2 c2 B2 A2 | G3 A (BA A4 G2) | A2 A2 d4 | B2 e4 A2 B2 B2 c4 | z4 z4 | %24
w: And his mer- cy is on|them that fear * * *|him through- out|all ge- ne- ra- ti- ons.||
"^Dec."!f! e3 e d2 c2 | B2 BB A2 A2- | A2 G2 F>FEF | GABc deff | e2 e4 =d2 | %29
w: He hath shew- ed|strength with his arm; he|* hath scat- ter- ed the|proud in the i- ma- gin- a- ti-|on of their|
 e2"^Full" B2 B2 B2 E2 B2 | e4 A4 B2 B2 | c4 z4 | z2!mp! A2"^cresc." B2 c2 | d2 cB c2"^dim." BA | %34
w: hearts. He hath put down the|migh- ty from their|seat,|and hath ex-|alt- ed the hum- ble and|
 G2"^Dec."!mf! BB c2 BA | G2 B2 A2 F2 | G2"^Can." B4 A2 | G3 A Bc B2- | B(A A4) G2 A4 | %39
w: meek. He hath fill- ed the|hun- gry with good|things, and the|rich he hath sent emp|* ty * a- way.|
"^Full"!p! c4 B2 d4 cB | c2 B3 A A3 A G2 | F4 f2 e3 (d B2) | c6"^cresc." B2 c2 e3 d B2 | %43
w: He re- mem- b'ring his|mer- cy hath hol- pen his|ser- vant Is- ra *|el, as he pro- mis- ed|
 z2 cc f2 (e4 =d2) | e4 z4 z2 f2- | fe d2 e3 (d c2) d2- | d2 c2 B4 c4 | z2!f! A4 B2 c2 BA | %48
w: to our fore- fa *|\-thers, A|* bra- ham and his * seed,|* for ev- er.|Glo- ry be to the|
 e3 e c2 d4 c2 | B4 d2 c3 B A2- | A2 G2 A4 z4 | AA d4 B2 e3 e | c2 d2 e2 e2 | d4 f2 e3 d c2 | %54
w: Fa- ther, and to the|Son, and to the Ho|* ly Ghost;|As it was in the be-|gin- ning, and is|now, and ev- er shall|
 B3 c d(e f2) | e2 e3 (d B2) | c2 (e2 A2 d2- | d2 cB c4) | %58
w: be, world with- out *|end, with- out *|end. A * *|* * * men.|
V:2
 x12 | x12 | x12 | x12 | x12 | x12 | x8 | x8 | x8 | x8 | x8 | x8 | x8 | x8 | x8 | x8 | x12 | x12 | %18
 x8 | x12 | x12 | x8 | x16 | x8 | x8 | x8 | x8 | x8 | x8 | x12 | x12 | x8 | x8 | x8 | x8 | x8 | %36
 x8 | x8 | x12 | x12 | x12 | (FG/A/ B/c/d/e/) x8 | x16 | x12 | x12 | x12 | x12 | x12 | x12 | x12 | %50
 x12 | x12 | x8 | x12 | x8 | x8 | x8 | x8 | %58
V:3
"^Full"!mf! E4 F6 E2 | F2 A2 A2 G2 A4 | z2 E2 F2 A3 A G2 | F4 E4 E2"^_" _G2- | %4
w: My soul doth|mag- ni- fy the Lord,|and my spi- rit re-|joic- eth in God|
"^___" G2 F2 (E3 D) C4 | z2!mp! E4 E2 A2 G2 | F4 E2 E2 | F2 A2 G2 (F"^__"E) | %8
w: * my Sa * viour.|For he hath re-|gard- ed the|low- li- ness of his|
"^____" (E2 =D2) E2 E2 | z2!mf! A4 G2 | F2 F4 =E2 | F6 F2 | E2 E2"^______" E4- | %13
w: * hand- mai- den.|For be-|hold, from hence-|forth all|ge- ne- ra|
"^___" (E2 E2) F2 EA- | A (G/F/) G2 A2!f! E2 | E2 EF G2 F2- | F2 E2 F3 E FG A2- | %17
w: * ti- ons shall call|* me * bless- ed. For|he that is migh- ty|* hath mag- ni- fi- ed me;|
"^___" A2 G2 A3 G F2 F2 | E2!mp! E"^Can."E A2 G2 | F2 E2 F4 F4 | (E3 D B,2 C2) E4 | E2 F4 F2 | %22
w: * and ho- ly is his|Name. And his mer- cy|is on them that|fear * * * him|through- out all|
 G4 E2 A4 G2 A4 | z4 z2"^_""^Dec."!f! A2- |"^___" A2 G2 FF E2- | ED B,2 F2 E2- | EDB,C D2 (CD) | %27
w: ge- ne- ra- ti- ons.|He|* hath shew- ed strength|* with his arm; he|* hath scat- ter- ed the *|
 (EF)_GG FFF=G | AA G2 F2 F2 | G4 z2"^Full" E2 E2 E2 | C3 C F2 E2 E2 E2 | %31
w: * * proud in the i- ma- gin-|a- ti- on of their|hearts. He hath put|down the migh- ty from their|
 E2!mp! C2"^cresc." D2 E2 | F6 E2 | F2 (ED C)E"^dim." =D2 | E2"^Dec."!mf! GG F2 FF | EE E4 =D2 | %36
w: seat, and hath ex-|alt- ed|the hum * * ble and|meek. He hath fill- ed the|hun- gry with good|
 E2"^Can." E4 E2 | E3 F _G2 F2- | F2 E3 D B,2 C4 |"^Full"!p! A4 G2 F4 ED | C2 F2 z2 (C2 E4) | %41
w: things, and the|rich he hath sent|* emp- ty a- way.|He re- mem- b'ring his|mer- cy hath *|
 D3 C A,2 C2 B,3 (E |"^cresc." CDEC F2 B,2) E2 EE F2 G2 | A3 A F2 G2 A4 | G2 B3 A G2 A3 (G | %45
w: hol- pen his ser- vant Is|* * * * * ra- el, as he pro- mis-|ed to our fore- fa-|\-thers, A- bra- ham and his|
 F4 E6) F2 | E2 E (A2 G/F/ G2) A4 | z2!f! E4 E2 E2 EF | G3 G A2 F4 E2 | E4 F2 E4 A,2 | %50
w: * seed, his|seed, for ev * * * er.|Glo- ry be to the|Fa- ther, and to the|Son, and to the|
 B,2 B,2 C4 (EE)"^___" A2 |"^____" (A2 F2) B4 G2 A2- | A2 F2 E2 E2 | F4 A2 E3 E F2 | G4 F2 B2- | %55
w: Ho- ly Ghost; As it was|* in the be- gin|* ning, and is|now, and ev- er shall|be, world with|
 B(A (A4 G2)) | A2 (E2 F4- | F2 E2 E4) | %58
w: * out * *|end. A *|* * men.|
V:4
"^Full"!mf! c4 c6 c2 | d2 e2 B2 B2 A2 c2- | c2 B2 BB A2 e4 | A3 B c6 e2 | (d3 c B4) A4 | %5
w: My soul doth|mag- ni- fy the Lord, and|* my spi- rit re- joic-|eth in God my|Sa * * viour.|
 z2!mp! c4 B2 A2 (Bc) | d4 c2 e2 | d2 f2 B2 c2 | d(c B2) B2 B2 | z2!mf! c4 e2 | c2 d2 c4 | %11
w: For he hath re *|gard- ed the|low- li- ness of|his hand * mai- den.|For be-|hold, from hence-|
 c4 F2 B2- | BAGF E2 A2 | c4 d2 (c2 | B4 A2)!f! c2 | c2 BA B4- | B2 B2 A4 A2 A2 | B4 A2 c2 FGAB | %18
w: forth all ge|* ne- ra- ti- ons shall|call me bless|* ed. For|he that is migh|* ty hath mag- ni-|\-fied me; and ho- ly is his|
 c4 z4 | z4 z2!mp! A"^Can."A d3 c | BB e2 e2 A2 B4 | c2 F2 F2 B2- | B2 G2 (c4 B2) B2 A4 | %23
w: Name.|And his mer- cy|is on them that fear him|through- out all ge|* ne- ra * ti- ons.|
 z2"^Dec."!f! e4 d2 |[M:3/2][K:treble-8] cc B3 (A A2- | A2 (G2) F2 A2) | E2 EE ABcA | %27
w: He hath|shew- ed strength with *|* his * *|arm; he hath scat- ter- ed the|
 B3 E F!courtesy!=GAB | cc B2 B2 B2 | B4 z2"^Full" G2 G2 G2 | A3 A d2 c2 B2 B2 | %31
w: proud in the i- ma- gin-|a- ti- on of their|hearts. He hath put|down the migh- ty from their|
 A!mp!A"^cresc." A3 B c2 | F6 A2 | F2 G2 (A2"^dim." F2) | E2"^Dec."!mf! ee e2 =dd | e2 B2 c2 B2 | %36
w: seat, and hath ex- alt-|ed the|hum- ble and *|meek. He hath fill- ed the|hun- gry with good|
 B2"^Can." G4 c2 | B4 B2 d2- | dd c2 B2 B2 A4 | z4 z4"^Full"!p! f4 | e2 d3 c A2 (c2"^__" B2) | %41
w: things, and the|rich he hath|* sent emp- ty a- way.|He|re- mem- b'ring his mer- cy|
"^___" (B2 F4) A3 A G2 | (A"^cresc."Bc)A d3 d c2 cc d2 e2 | f2 ff d2 (c4 BA) | B4 e3 d c2 d2- | %45
w: * hath hol- pen his|ser * * vant Is- ra- el, as he pro- mis-|ed to our fore- fa * *|\-thers, A- bra- ham and|
 d(c B4) c4 A2 | B2 c2 e4 e4 | z2!f! c4 B2 A2 eA | B3 B A2 A4 A2 | G4 A4 c2 d2 | e2 E2 E4 z4 | %51
w: * his * seed, his|seed, for ev- er.|Glo- ry be to the|Fa- ther, and to the|Son, and to the|Ho- ly Ghost;|
 FF B4 G2 c4 | A2 d2 d2 c2 | d2 d2 F2 G3 G A2 | B4 B2 d2- | d2 (c2 B4) | A3 (G F4) | A8 | %58
w: As it was in the|be- gin- ning, and|is now, and ev- er shall|be, world with|* out *|end. A *|men.|
V:5
"^Full"!mf! A,4 F,6 A,2 | D,2 C,2 E,2 E,2 A,,2 A,2- | A,2 G,2 F,3 F, E,4 | (D,E,F,G,) A,6 E,2 | %4
w: My soul doth|mag- ni- fy the Lord, and|* my spi- rit re-|joic * * * eth in|
 _G,2 D,2 E,4 A,,4 | z2!mp! A,4 G,2 F,2 E,2 | D,4 A,2 C2 | B,2 F,2 G,2 A,2 | B,2 B,2 E,2 E,2 | %9
w: God my Sa- viour.|For he hath re-|gard- ed the|low- li- ness of|his hand- mai- den.|
 z2!mf! A,4 E,2 | F,2 B,,2 C,4 | F,3 E, D,2 B,,2 | E,3 D, C,2 A,,2 | %13
w: For be-|hold, from hence-|forth all ge- ne-|ra- ti- ons shall|
"^This edition ? Andrew Sims 2001" A,4 F,2 (A,2 | E,4 A,,2)!f! A,2 | A,2 G,F, (E,2 F,2) | %16
w: call me bless|* ed. For|he that is migh *|
 G,4 F,2 A,3 G, F,2 | E,2 E,2 F,2 C,2 D, (E,F,G,) | A,6!mp! E,"^Can."E, | A,2 G,2 F,3 E, D,4 | %20
w: ty hath mag- ni- fied|me; and ho- ly is his * *|Name. And his|mer- cy is on them|
 E,3 (F, G,2 A,2) E,4 | C,2 D,4 B,,2 | E,4 C,4 E,2 E,2 A,,4 |"^Dec."!f! A,3 A, G,2 F,2 | %24
w: that fear * * him|through- out all|ge- ne- ra- ti- ons.|He hath shew- ed|
 E,4 B,,2 C,2 | E,2 E,E, A,>B,CC | B,3 E, F,G,A,F, | E,3 E, D,4 | C,2 (E,2 B,,4) | %29
w: strength with his|arm; he hath scat- ter- ed the|proud in the i- ma- gin-|\-a- ti- on|of their *|
 E,4 z2"^Full" E,2 E,2 E,2 | A,,2 A,2 F,2 A,2 A,2 G,2 | A,3!mp! A,"^cresc." F,2 C,2 | (D,6 C,2) | %33
w: hearts. He hath put|down the migh- ty from their|seat, and hath ex-|alt *|
 B,,2 E,2 A,,"^dim."A,, B,,2 | E,2"^Dec."!mf! G,G, A,2 B,B, | C2 G,2 A,2 B,2 | E,2"^Can." E,4 C,2 | %37
w: ed the hum- ble and|meek. He hath fill- ed the|hun- gry with good|things, and the|
 E,6 D,2 | B,,2 C,2 E,2 E,E, A,,4 |"^Full"!p! A,4 E,2 B,3 F, G,2 | A,2 D,2 F,4 E,3 D, | %41
w: rich he|hath sent emp- ty a- way.|He re- mem- b'ring his|mer- cy hath hol- pen|
 B,,2 D,4 C,2 D,2 E,2 | A,,2 A,A,"^cresc." F,2 G,2 A,2 z2 z4 | z2 A,2 D,2 E,2 F,4 | E,4 z4 z4 | %45
w: his ser- vant Is- ra-|el, as he pro- mis- ed|to our fore- fa-|\-thers,|
 B,3 A, G,2 A,3 (G, F,2) | G,2 A,2 E,4 A,,4 | z2!f! A,4 G,2 A,2 G,F, | E,3 E, F,2 D,4 A,,2 | %49
w: A- bra- ham and his *|seed for ev- er.|Glo- ry be to the|Fa- ther and to the|
 E,4 D,2 A,4 F,2 | E,2 E,2 A,,4 z2 A,,A,, | D,4 B,,2 E,4 C,2 | F,2 D,2 A,2 A,2 | %53
w: Son, and to the|Ho- ly Ghost; As it|was in the be-|gin- ning, and is|
 D,4 D,2 C,3 B,, A,,2 | E,4 D,4 | E,4 E,4 | A,,2 (C,2 D,4) | A,,8 | %58
w: now, and ev- er shall|be world|with- out|end. A *|men.|

